X: 178
T:Up Goes Ely
M:9/8
L:1/8
Q:140
A:England
K:D
d/2c/2| d2 d F2 G A2 A| d2 d c2 d e>fe| d2 d F2 G A>BA| B2 G G2 E G2 d/2 c/2|d2 d F2 G A2 A| d2 d c2 d e>fe|d2 d F2g A>BA|B2 G G2 E G2|| F |D2 A A2 F2 A F2|DA A A2 B =c3| D2 A A2 F A>Bc| d2 A F2 E D2 F| D2 A A2 F A2 F | D2 A A2 B =c3|D2 A A2 F A>Bc |d2 A F2 E D2:|

